build/assets/images/proyectos/logos/fichas/logo-elcorteingles.svg

<svg width="200" height="48" viewBox="0 0 200 48" fill="none" xmlns="http://www.w3.org/2000/svg">
<path fill-rule="evenodd" clip-rule="evenodd" d="M17.1531 28.0022C13.6201 30.1353 9.58718 30.4686 8.15398 27.8022C20.5862 28.6688 14.8867 12.7703 6.18749 19.0697C4.58764 13.6369 9.75383 9.20395 16.2199 12.237L16.3199 6.17089C8.15398 2.47124 -5.3781 9.23728 2.25453 24.2026C0.221381 34.6683 11.4203 38.3346 19.9529 32.7684C21.4194 34.4016 25.2191 35.6348 28.8187 33.3017L28.8854 28.6688C26.8522 30.3686 23.3859 29.9687 24.4191 28.7021C35.0515 5.87092 13.7201 4.971 17.1531 28.0022ZM9.45391 24.1692C8.78731 24.1692 8.28735 23.636 8.28735 22.9694C8.28735 22.3027 8.85397 21.8028 9.48724 21.8028C10.1538 21.8028 10.6538 22.3361 10.6538 23.0027C10.6538 23.6693 10.1205 24.1692 9.45391 24.1692Z" fill="white"/>
<path d="M21.086 21.0695C20.8527 22.8027 21.086 24.2692 21.586 24.3359C22.1193 24.4025 22.7192 23.0693 22.9525 21.3361C23.1858 19.603 22.9525 18.1364 22.4526 18.0698C21.9526 18.0031 21.3527 19.3363 21.086 21.0695Z" fill="white"/>
<path fill-rule="evenodd" clip-rule="evenodd" d="M53.2497 32.3352C27.6521 48.2338 21.5193 2.83798 49.9833 7.23757L49.85 12.6704C29.4852 7.43755 34.5848 39.4012 50.1833 27.7023C49.1167 22.3028 56.0161 20.4363 56.1827 24.236C56.0494 26.0358 56.1494 29.0355 58.3492 29.1689C60.4823 29.3355 61.9155 26.8691 59.5491 26.5358C50.4166 23.4694 60.749 9.77067 66.1485 21.0363C68.4816 21.0696 70.5148 21.8029 71.848 23.7694C72.0146 22.8028 74.0144 21.7029 75.5476 22.1029L75.481 26.9024C73.9478 26.9691 72.7145 27.669 72.7479 29.3688L72.6812 34.2017L68.4483 34.1351L68.5149 29.5022C68.5483 28.2023 67.6484 27.3357 65.7152 27.3357C65.6485 31.2353 59.6491 36.3682 53.2497 32.3352ZM61.0491 22.7361C60.5491 22.7028 60.1825 22.3028 60.1825 21.8362C60.1825 21.3362 60.5825 20.9363 61.0824 20.9696C61.5824 21.003 61.949 21.4029 61.949 21.8695C61.949 22.3695 61.549 22.7361 61.0491 22.7361Z" fill="white"/>
<path fill-rule="evenodd" clip-rule="evenodd" d="M78.6143 22.3362L79.4475 11.8038L84.1138 11.7705L83.0805 22.9361L84.5137 22.9695C91.9797 8.33749 106.112 22.4362 90.4798 28.9356C92.513 31.7687 95.6127 30.6021 98.1125 28.8689L98.0125 34.2684C94.8794 37.3015 86.9468 37.0348 84.647 29.9688C83.9138 27.9357 82.6472 28.369 82.6806 29.0356L82.5806 34.8684L77.9143 34.8017L78.0477 27.1024L76.9478 27.0358L77.0144 22.3029L78.6143 22.3362ZM89.8463 24.4693C89.4463 24.2026 89.613 23.3027 90.2129 22.4694C90.7795 21.6362 91.6128 21.2029 92.0128 21.5029C92.4127 21.7695 92.2461 22.6694 91.6461 23.5027C91.0462 24.3359 90.2463 24.7692 89.8463 24.4693Z" fill="white"/>
<path fill-rule="evenodd" clip-rule="evenodd" d="M108.344 20.1363L107.078 0.104865L112.077 0.0715332L113.244 17.7366C115.644 17.5032 119.577 18.1365 121.443 22.5028C123.61 19.6364 131.642 17.9365 132.342 28.6355L132.242 34.7016L126.843 34.6017L126.943 28.4356C126.943 25.0692 123.076 25.0026 122.976 28.2689L122.843 35.8682L117.744 35.8015L117.41 26.7357C117.044 23.936 112.744 22.2361 113.744 26.2024C113.75 26.2654 113.76 26.3548 113.773 26.4685C114.087 29.3077 116.079 47.3262 107.811 47.9671C99.9119 47.4671 100.845 27.4357 108.344 20.1363ZM108.145 39.9679C107.645 39.9346 107.311 37.5015 107.478 34.5351C107.611 31.5687 108.178 29.2022 108.711 29.2022C109.245 29.2356 109.545 31.6687 109.378 34.6351C109.211 37.6015 108.678 40.0012 108.145 39.9679Z" fill="white"/>
<path d="M142.875 40.8011C142.808 41.501 143.242 42.1343 143.842 42.1676C144.441 42.2343 144.975 41.701 145.041 40.9678C145.108 40.2678 144.675 39.6345 144.075 39.5679C143.475 39.5346 142.942 40.0678 142.875 40.8011Z" fill="white"/>
<path fill-rule="evenodd" clip-rule="evenodd" d="M143.008 47.4672C149.441 48.0671 150.408 41.701 150.008 37.9014L155.94 33.8018C157.907 37.6347 166.506 37.2681 170.572 34.8017C172.272 36.1682 176.639 35.5683 178.005 34.435L190.171 27.2024C193.837 25.0026 194.77 28.5356 193.604 29.7688C191.804 31.5686 188.371 32.5685 187.571 32.7352L187.471 38.1347C201.203 37.6681 204.036 21.1029 194.037 21.1363C190.814 20.8744 186.326 23.6064 182.308 26.0524C179.677 27.6543 177.246 29.1335 175.505 29.5688C180.671 17.5699 160.04 16.7033 164.773 31.5686C162.64 32.5019 160.773 31.7353 160.007 30.5687C164.673 24.5693 166.673 14.9702 159.107 13.6036C154.507 12.8037 149.741 20.7363 153.141 30.3354C152.107 30.7687 150.041 31.402 150.041 31.402L150.141 24.4026L145.075 24.336C143.675 28.0689 139.909 29.9688 139.242 29.2355C138.475 26.5691 142.042 23.736 148.874 23.4027L148.974 18.0699C140.109 18.3699 134.309 22.9361 133.343 28.1689C133.009 35.8349 140.009 35.4683 144.342 32.4352L144.308 34.1351C135.976 37.2014 136.042 46.7672 143.008 47.4672ZM156.94 22.2695C156.673 23.9027 156.873 25.3026 157.373 25.3692C157.873 25.4692 158.473 24.2027 158.74 22.5695C159.007 20.9363 158.807 19.5364 158.307 19.4698C157.807 19.3698 157.207 20.6363 156.94 22.2695ZM170.472 28.9689C169.772 28.9689 169.239 28.1023 169.239 27.0357C169.272 25.9692 169.839 25.1359 170.539 25.1359C171.239 25.1359 171.772 26.0025 171.772 27.0691C171.739 28.1356 171.172 28.9689 170.472 28.9689Z" fill="white"/>
<path d="M186.671 11.1704L189.271 15.67L178.838 22.1694L175.605 18.0698L186.671 11.1704Z" fill="white"/>
</svg>

<svg width="200" height="48" fill="none" xmlns="http://www.w3.org/2000/svg"><path fill-rule="evenodd" clip-rule="evenodd" d="M17.153 28.002c-3.533 2.133-7.566 2.467-8.999-.2 12.432.867 6.733-15.032-1.967-8.732-1.6-5.433 3.567-9.866 10.033-6.833l.1-6.066C8.154 2.47-5.378 9.237 2.255 24.203.22 34.668 11.42 38.335 19.953 32.768c1.466 1.634 5.266 2.867 8.866.534l.066-4.633c-2.033 1.7-5.5 1.3-4.466.033 10.632-22.831-10.699-23.731-7.266-.7zm-7.7-3.833c-.666 0-1.166-.533-1.166-1.2 0-.666.567-1.166 1.2-1.166.667 0 1.167.533 1.167 1.2 0 .666-.534 1.166-1.2 1.166z" fill="#fff"/><path d="M21.086 21.07c-.233 1.733 0 3.2.5 3.266.533.067 1.133-1.267 1.367-3 .233-1.733 0-3.2-.5-3.266-.5-.067-1.1 1.266-1.367 3z" fill="#fff"/><path fill-rule="evenodd" clip-rule="evenodd" d="M53.25 32.335C27.652 48.234 21.52 2.838 49.983 7.238l-.133 5.432c-20.365-5.232-15.265 26.731.333 15.032-1.066-5.4 5.833-7.266 6-3.466-.134 1.8-.034 4.8 2.166 4.933 2.133.166 3.567-2.3 1.2-2.633-9.132-3.067 1.2-16.765 6.6-5.5 2.333.034 4.366.767 5.699 2.733.167-.966 2.166-2.066 3.7-1.666l-.067 4.8c-1.533.066-2.766.766-2.733 2.466l-.067 4.833-4.233-.067.067-4.633c.033-1.3-.867-2.166-2.8-2.166-.067 3.9-6.066 9.032-12.465 5zm7.8-9.599a.911.911 0 01-.867-.9c0-.5.4-.9.9-.866a.91.91 0 01.866.9c0 .5-.4.866-.9.866zm17.564-.4l.834-10.532 4.666-.034-1.034 11.166 1.434.034c7.466-14.633 21.598-.534 5.966 5.966 2.033 2.833 5.133 1.666 7.632-.067l-.1 5.4c-3.133 3.032-11.065 2.766-13.365-4.3-.733-2.033-2-1.6-1.966-.933l-.1 5.832-4.667-.066.134-7.7-1.1-.066.066-4.733 1.6.033zm11.232 2.133c-.4-.266-.233-1.166.367-2 .567-.833 1.4-1.266 1.8-.966.4.267.233 1.166-.367 2-.6.833-1.4 1.266-1.8.966zm18.498-4.333L107.078.105l4.999-.033 1.167 17.665c2.4-.234 6.333.4 8.199 4.766 2.167-2.867 10.199-4.567 10.899 6.133l-.1 6.066-5.399-.1.1-6.166c0-3.367-3.867-3.433-3.967-.167l-.133 7.6-5.099-.068-.334-9.065c-.366-2.8-4.666-4.5-3.666-.534l.029.266c.314 2.84 2.306 20.858-5.962 21.5-7.9-.5-6.966-20.532.533-27.832zm-.199 19.832c-.5-.033-.834-2.467-.667-5.433.133-2.966.7-5.333 1.233-5.333.534.034.834 2.467.667 5.433-.167 2.967-.7 5.366-1.233 5.333z" fill="#fff"/><path d="M142.875 40.801c-.067.7.367 1.333.967 1.367.599.066 1.133-.467 1.199-1.2.067-.7-.366-1.334-.966-1.4-.6-.033-1.133.5-1.2 1.233z" fill="#fff"/><path fill-rule="evenodd" clip-rule="evenodd" d="M143.008 47.467c6.433.6 7.4-5.766 7-9.566l5.932-4.1c1.967 3.834 10.566 3.467 14.632 1 1.7 1.367 6.067.767 7.433-.366l12.166-7.233c3.666-2.2 4.599 1.334 3.433 2.567-1.8 1.8-5.233 2.8-6.033 2.966l-.1 5.4c13.732-.467 16.565-17.032 6.566-16.999-3.223-.262-7.711 2.47-11.729 4.916-2.631 1.602-5.062 3.082-6.803 3.517 5.166-12-15.465-12.866-10.732 2-2.133.933-4 .166-4.766-1 4.666-6 6.666-15.599-.9-16.965-4.6-.8-9.366 7.132-5.966 16.731-1.034.434-3.1 1.067-3.1 1.067l.1-7-5.066-.066c-1.4 3.733-5.166 5.633-5.833 4.9-.767-2.667 2.8-5.5 9.632-5.833l.1-5.333c-8.865.3-14.665 4.866-15.631 10.099-.334 7.666 6.666 7.3 10.999 4.266l-.034 1.7c-8.332 3.066-8.266 12.632-1.3 13.332zM156.94 22.27c-.267 1.633-.067 3.033.433 3.1.5.1 1.1-1.167 1.367-2.8.267-1.634.067-3.034-.433-3.1-.5-.1-1.1 1.166-1.367 2.8zm13.532 6.699c-.7 0-1.233-.867-1.233-1.933.033-1.067.6-1.9 1.3-1.9.7 0 1.233.867 1.233 1.933-.033 1.067-.6 1.9-1.3 1.9z" fill="#fff"/><path d="M186.671 11.17l2.6 4.5-10.433 6.5-3.233-4.1 11.066-6.9z" fill="#fff"/></svg>
